public/img/filter/pastry.svg

<svg width="100" height="100" viewBox="0 0 100 100" fill="none" xmlns="http://www.w3.org/2000/svg">
<rect x="1" y="1" width="98" height="98" rx="14" stroke="#234cad" stroke-width="2"/>
<path d="M65.2189 36.2119C64.6941 36.2119 64.2682 36.6378 64.2682 37.1626C64.2682 37.6874 64.6941 38.1134 65.2189 38.1134C65.7437 38.1134 66.1696 37.6874 66.1696 37.1626C66.1696 36.6378 65.7437 36.2119 65.2189 36.2119Z" fill="#234cad"/>
<path d="M61.4161 38.1133C60.8913 38.1133 60.4653 38.5392 60.4653 39.064C60.4653 39.5888 60.8913 40.0147 61.4161 40.0147C61.9409 40.0147 62.3668 39.5888 62.3668 39.064C62.3668 38.5392 61.9409 38.1133 61.4161 38.1133Z" fill="#234cad"/>
<path d="M57.6131 38.1133C57.0883 38.1133 56.6624 38.5392 56.6624 39.064C56.6624 39.5888 57.0883 40.0147 57.6131 40.0147C58.1379 40.0147 58.5638 39.5888 58.5638 39.064C58.5638 38.5392 58.1379 38.1133 57.6131 38.1133Z" fill="#234cad"/>
<path d="M53.8102 36.2119C53.2854 36.2119 52.8595 36.6378 52.8595 37.1626C52.8595 37.6874 53.2854 38.1134 53.8102 38.1134C54.335 38.1134 54.7609 37.6874 54.7609 37.1626C54.7609 36.6378 54.335 36.2119 53.8102 36.2119Z" fill="#234cad"/>
<path d="M48.8665 43.0571C48.3417 43.0571 47.9158 43.4831 47.9158 44.0079C47.9158 44.5327 48.3417 44.9586 48.8665 44.9586C49.3913 44.9586 49.8172 44.5327 49.8172 44.0079C49.8172 43.4831 49.3913 43.0571 48.8665 43.0571Z" fill="#234cad"/>
<path d="M45.0636 44.9585C44.5388 44.9585 44.1129 45.3844 44.1129 45.9092C44.1129 46.434 44.5388 46.8599 45.0636 46.8599C45.5884 46.8599 46.0144 46.434 46.0144 45.9092C46.0144 45.3844 45.5884 44.9585 45.0636 44.9585Z" fill="#234cad"/>
<path d="M41.2608 44.9585C40.736 44.9585 40.3101 45.3844 40.3101 45.9092C40.3101 46.434 40.736 46.8599 41.2608 46.8599C41.7856 46.8599 42.2115 46.434 42.2115 45.9092C42.2115 45.3844 41.7856 44.9585 41.2608 44.9585Z" fill="#234cad"/>
<path d="M37.4578 43.0571C36.933 43.0571 36.5071 43.4831 36.5071 44.0079C36.5071 44.5327 36.933 44.9586 37.4578 44.9586C37.9826 44.9586 38.4085 44.5327 38.4085 44.0079C38.4085 43.4831 37.9826 43.0571 37.4578 43.0571Z" fill="#234cad"/>
<path d="M64.2621 31.2163C64.1356 28.7072 62.0546 26.7046 59.5146 26.7046C59.3226 26.7046 59.1335 26.7174 58.9473 26.7397C57.5189 24.0657 55.1002 22.0124 52.2094 21.0491C51.7111 20.883 51.1728 21.1523 51.0068 21.6505C50.8408 22.1486 51.11 22.687 51.6082 22.853C53.9363 23.6288 55.8999 25.2457 57.1158 27.3567C55.7738 28.1446 54.85 29.571 54.7671 31.2162C51.8887 32.0994 49.32 33.7723 47.3414 36.0377C46.5337 34.5517 44.9582 33.5498 43.1621 33.5498C42.97 33.5498 42.7809 33.5625 42.5948 33.5849C41.1664 30.9108 38.7476 28.8576 35.8569 27.8942C35.3584 27.7281 34.8203 27.9974 34.6543 28.4956C34.4883 28.9937 34.7575 29.5321 35.2557 29.6981C37.5838 30.4739 39.5474 32.0908 40.7633 34.2019C39.4213 34.9897 38.4975 36.4161 38.4146 38.0614C31.6563 40.1305 27 46.3781 27 53.515C27 54.2736 27.1843 55.0224 27.5296 55.6912L30.5411 67.3728C30.8025 68.7104 31.9738 69.6773 33.3405 69.6773C35.7143 69.6773 49.866 69.6773 52.9843 69.6773C54.351 69.6773 55.5222 68.7104 55.7837 67.3728L56.9541 62.832C59.6948 62.832 66.6069 62.832 69.3366 62.832C70.7033 62.832 71.8745 61.8652 72.136 60.5277L75.1474 48.8459C75.4928 48.1767 75.677 47.4281 75.677 46.6698C75.6769 39.533 71.0205 33.2853 64.2621 31.2163ZM59.5146 28.6061C61.0873 28.6061 62.3668 29.8856 62.3668 31.4583C62.3668 33.046 61.0763 34.3105 59.5146 34.3105C57.9523 34.3105 56.6625 33.0454 56.6625 31.4583C56.6625 29.8856 57.942 28.6061 59.5146 28.6061ZM43.1622 35.4513C44.7347 35.4513 46.0144 36.725 46.0144 38.3035C46.0144 39.8912 44.7239 41.1557 43.1622 41.1557C41.5892 41.1557 40.3101 39.8777 40.3101 38.3035C40.3101 36.7308 41.5896 35.4513 43.1622 35.4513ZM33.3404 67.7758C32.8805 67.7758 32.487 67.4475 32.4047 66.9953C32.4006 66.9727 32.3957 66.9503 32.39 66.9282L30.0788 57.963C30.6062 58.1619 31.1723 58.2687 31.7536 58.2687C32.932 58.2687 34.0183 57.845 34.8552 57.1263L36.2084 67.7758H33.3404ZM42.2114 67.7759H38.1253V67.7758L36.8236 57.5323C37.5581 57.9976 38.4273 58.2687 39.3592 58.2687C40.4285 58.2687 41.4164 57.9137 42.2114 57.3156V67.7759ZM48.1992 67.7759H44.113V67.7758V57.314C44.9147 57.9161 45.9071 58.2687 46.9652 58.2687C47.8971 58.2687 48.7661 57.9977 49.5005 57.5325L48.1992 67.7759ZM53.9344 66.9282C53.9287 66.9503 53.9238 66.9727 53.9197 66.9953C53.8374 67.4475 53.4439 67.7758 52.984 67.7758H50.1159L51.4705 57.1134C52.3133 57.8384 53.4045 58.2687 54.5709 58.2687C55.1522 58.2687 55.7183 58.1618 56.2457 57.963L53.9344 66.9282ZM57.0668 54.8956C56.5635 55.8032 55.6071 56.3672 54.5708 56.3672C53.2913 56.3672 52.1606 55.5069 51.821 54.2736C51.7531 54.0287 51.7186 53.7734 51.7186 53.515C51.7186 52.99 51.293 52.5643 50.7679 52.5643C50.2428 52.5643 49.8171 52.99 49.8171 53.515C49.8171 55.0877 48.5377 56.3672 46.965 56.3672C45.6091 56.3672 44.4327 55.4036 44.1681 54.0787C44.1314 53.8923 44.1128 53.7027 44.1128 53.515C44.1128 52.99 43.6871 52.5643 43.1621 52.5643C42.637 52.5643 42.2113 52.99 42.2113 53.515C42.2113 55.0877 40.9318 56.3672 39.3592 56.3672C37.7865 56.3672 36.507 55.0877 36.507 53.515C36.507 52.99 36.0813 52.5643 35.5563 52.5643C35.0312 52.5643 34.6055 52.99 34.6055 53.515C34.6055 53.5927 34.6013 53.6699 34.5953 53.7467C34.5099 53.9114 34.4715 54.1025 34.496 54.3004C34.15 55.5067 33.021 56.3673 31.7533 56.3673C30.7171 56.3673 29.7606 55.8033 29.2568 54.8949C29.0243 54.4762 28.9014 53.999 28.9014 53.5151C28.9015 47.3112 32.8879 41.869 38.707 39.9633C39.3853 41.785 41.143 43.0571 43.1622 43.0571C45.1826 43.0571 46.9413 41.7835 47.6183 39.9636C52.1972 41.4656 55.7344 45.1988 56.9621 49.9024C57.2679 51.0764 57.4229 52.2919 57.4229 53.515C57.4229 53.9989 57.3 54.476 57.0668 54.8956ZM64.5515 60.9307H57.4442L58.7948 55.691C59.1402 55.0218 59.3244 54.2732 59.3244 53.5149C59.3244 52.3744 59.2033 51.2398 58.9676 50.1314C59.1689 49.9422 59.353 49.7385 59.5164 49.5213C60.3845 50.6756 61.7653 51.4234 63.3175 51.4234C64.2492 51.4234 65.1186 51.1533 65.853 50.6883L64.5515 60.9307ZM70.2868 60.083C70.2811 60.1052 70.2762 60.1276 70.2721 60.1501C70.1898 60.6024 69.7963 60.9307 69.3364 60.9307H66.4682L67.8213 50.282C68.6583 51.0005 69.7449 51.4235 70.9232 51.4235C71.5045 51.4235 72.0706 51.3167 72.598 51.1179L70.2868 60.083ZM73.4193 48.0504C72.916 48.9582 71.9596 49.5221 70.9233 49.5221C69.6095 49.5221 68.4446 48.5981 68.1459 47.3227C68.1458 47.3222 68.1456 47.3217 68.1455 47.3211C68.1448 47.3177 68.1437 47.3143 68.143 47.3109C68.1424 47.3084 68.1421 47.3058 68.1415 47.3034C68.0948 47.0976 68.0711 46.8846 68.0711 46.6699C68.0711 46.1449 67.6454 45.7192 67.1204 45.7192C66.5953 45.7192 66.1696 46.1449 66.1696 46.6699C66.1696 48.2426 64.8901 49.5221 63.3175 49.5221C61.7448 49.5221 60.4653 48.2426 60.4653 46.6699C60.4653 46.1449 60.0396 45.7192 59.5145 45.7192C58.9895 45.7192 58.5638 46.1449 58.5638 46.6699C58.5638 47.0855 58.4737 47.4877 58.3062 47.8545C56.5811 43.2317 52.8209 39.6332 48.0985 38.1221C49.8595 35.773 52.2895 34.0281 55.0593 33.1183C55.7378 34.9398 57.4955 36.212 59.5146 36.212C61.535 36.212 63.2937 34.9384 63.9708 33.1184C69.7893 35.0243 73.7754 40.4665 73.7754 46.6699C73.7754 47.1538 73.6525 47.6309 73.4193 48.0504Z" fill="#234cad"/>
</svg>

<svg width="60" height="60" viewBox="0 0 100 100" fill="none" xmlns="http://www.w3.org/2000/svg">
  <rect x="1" y="1" width="98" height="98" rx="14" stroke="#234cad" stroke-width="2"/>
  <path d="M65.22 36.21a.95.95 0 100 1.9.95.95 0 000-1.9zM61.42 38.11a.95.95 0 100 1.9.95.95 0 000-1.9zM57.61 38.11a.95.95 0 100 1.9.95.95 0 000-1.9zM53.81 36.21a.95.95 0 100 1.9.95.95 0 000-1.9zM48.87 43.06a.95.95 0 100 1.9.95.95 0 000-1.9zM45.06 44.96a.95.95 0 100 1.9.95.95 0 000-1.9zM41.26 44.96a.95.95 0 100 1.9.95.95 0 000-1.9zM37.46 43.06a.95.95 0 100 1.9.95.95 0 000-1.9z" fill="#234cad"/>
  <path d="M64.26 31.22a4.76 4.76 0 00-5.31-4.48 11.94 11.94 0 00-6.74-5.7.95.95 0 10-.6 1.81c2.33.78 4.29 2.4 5.5 4.5a4.76 4.76 0 00-2.34 3.87 16.15 16.15 0 00-7.43 4.82 4.76 4.76 0 00-4.75-2.46 11.94 11.94 0 00-6.73-5.69.95.95 0 10-.6 1.8c2.32.78 4.29 2.4 5.5 4.51a4.76 4.76 0 00-2.35 3.86A16.15 16.15 0 0027 53.51c0 .76.18 1.51.53 2.18l3.01 11.68a2.85 2.85 0 002.8 2.3h19.64c1.37 0 2.54-.96 2.8-2.3l1.17-4.54h12.39c1.36 0 2.53-.96 2.8-2.3l3-11.68c.35-.67.54-1.42.54-2.18 0-7.14-4.66-13.38-11.42-15.45zm-4.75-2.61a2.86 2.86 0 110 5.7 2.86 2.86 0 010-5.7zm-16.35 6.84a2.85 2.85 0 110 5.7 2.85 2.85 0 010-5.7zm-9.82 32.33a.95.95 0 01-.94-.78l-.01-.07-2.31-8.97a4.74 4.74 0 004.78-.83l1.35 10.65h-2.87zm8.87 0h-4.08l-1.3-10.25a4.72 4.72 0 005.38-.21v10.46zm5.99 0H44.1V57.3a4.74 4.74 0 005.4.22l-1.31 10.25zm5.73-.85l-.01.07a.95.95 0 01-.94.78h-2.86l1.35-10.67a4.75 4.75 0 004.78.85l-2.32 8.97zm3.14-12.03a2.86 2.86 0 01-5.35-1.38.95.95 0 00-1.9 0 2.86 2.86 0 01-5.7 0 .95.95 0 00-1.9 0 2.86 2.86 0 01-5.71 0 .95.95 0 00-1.9 0l-.01.23a.95.95 0 00-.1.55 2.86 2.86 0 01-5.6-.79c0-6.2 3.99-11.64 9.8-13.55a4.76 4.76 0 008.92 0 14.25 14.25 0 019.8 13.55c0 .49-.12.97-.35 1.39zm7.48 6.03h-7.1l1.34-5.24c.35-.67.53-1.42.53-2.18 0-1.14-.12-2.27-.35-3.38.2-.19.38-.4.55-.6a4.75 4.75 0 006.33 1.16l-1.3 10.24zm5.74-.85l-.02.07a.95.95 0 01-.93.78h-2.87l1.35-10.65a4.74 4.74 0 004.78.84l-2.31 8.96zm3.13-12.03a2.86 2.86 0 01-5.27-.73v-.02c-.06-.2-.08-.42-.08-.63a.95.95 0 00-1.9 0 2.86 2.86 0 01-5.7 0 .95.95 0 00-1.9 0c0 .42-.1.82-.26 1.18a16.16 16.16 0 00-10.21-9.73c1.76-2.35 4.19-4.1 6.96-5a4.76 4.76 0 008.91 0c5.82 1.9 9.8 7.35 9.8 13.55 0 .48-.12.96-.35 1.38z" fill="#234cad"/>
</svg>
